symbols/web/waving_hand/materialsymbolsrounded/waving_hand_wght100gradN25_48px.svg

<svg xmlns="http://www.w3.org/2000/svg" height="48" width="48"><path d="M35.55 45.1q3.45-.25 6.25-2.975t3.35-6.575q0-.3-.225-.55-.225-.25-.525-.25-.3 0-.5.225t-.2.475q-.55 3.2-2.775 5.5-2.225 2.3-5.475 2.7-.25.1-.425.3-.175.2-.175.5 0 .35.2.525.2.175.5.125ZM3.6 13.15q.3 0 .5-.175t.3-.425q.45-3.2 2.7-5.525t5.45-2.775q.25 0 .475-.2.225-.2.225-.45 0-.3-.25-.525-.25-.225-.55-.225-3.75.5-6.4 3.175Q3.4 8.7 2.95 12.45q-.05.3.15.5t.5.2Zm7.5 25.05q-4.1-4-4.075-9.025Q7.05 24.15 11.1 20l7.35-7.3q.75-.75 1.725-.75.975 0 1.775.75.5.55.7 1.475.2.925-.2 1.825l7.35-7.3q.75-.8 1.725-.775.975.025 1.725.775.6.6.75 1.375.15.775-.1 1.575l2.15-2.15q.65-.85 1.8-.8 1.15.05 1.95.8 1.05 1.1.65 2.375T38.4 14.6q.65-.35 1.45-.2.8.15 1.45.9.75.8.75 1.775 0 .975-.75 1.675l-4.05 4.1q.85-.45 1.775-.45.925 0 1.725.8.75.8.75 1.8t-.75 1.75L29.3 38.2q-4.15 4.05-9.175 4.075Q15.1 42.3 11.1 38.2ZM17 19.45l4.15-4.1q.35-.4.35-.95 0-.55-.35-.9-.4-.45-.975-.45t-.975.45l-7.3 7.3q-1.9 1.9-2.85 4.025-.95 2.125-.95 4.3t.95 4.325Q10 35.6 11.9 37.4q1.8 1.9 3.95 2.85 2.15.95 4.325.95 2.175 0 4.3-.95T28.5 37.4l11.45-11.45q.45-.4.45-.95 0-.55-.45-1-.35-.4-.925-.4-.575 0-.975.4l-6.2 6.2q-.35.4-.85.375-.5-.025-.85-.375-.4-.3-.4-.85t.4-.9L40.5 18q.45-.35.45-.925 0-.575-.45-.975-.35-.4-.925-.4-.575 0-.975.4l-9 9q-.35.4-.9.4t-.85-.4q-.4-.3-.375-.825.025-.525.425-.925L39 12.25q.4-.4.375-.95-.025-.55-.375-1-.4-.4-.975-.4t-.975.4l-11.1 11.2q-.35.25-.875.275-.525.025-.875-.325-.4-.3-.4-.85t.35-.95l8.35-8.25q.4-.4.4-.975t-.4-.925q-.4-.45-.975-.45t-.925.45L18.7 21.25q1 2.35 1 4.725 0 2.375-1.3 4.875-.25.5-.725.575-.475.075-.875-.375-.2-.15-.275-.5-.075-.35.075-.7.95-1.95 1.05-4.025.1-2.075-.95-4.125-.25-.5-.175-1.15.075-.65.475-1.1Z"/></svg>

<svg xmlns="http://www.w3.org/2000/svg" height="48" width="48"><path d="M35.55 45.1Q39 44.85 41.8 42.125Q44.6 39.4 45.15 35.55Q45.15 35.25 44.925 35Q44.7 34.75 44.4 34.75Q44.1 34.75 43.9 34.975Q43.7 35.2 43.7 35.45Q43.15 38.65 40.925 40.95Q38.7 43.25 35.45 43.65Q35.2 43.75 35.025 43.95Q34.85 44.15 34.85 44.45Q34.85 44.8 35.05 44.975Q35.25 45.15 35.55 45.1ZM3.6 13.15Q3.9 13.15 4.1 12.975Q4.3 12.8 4.4 12.55Q4.85 9.35 7.1 7.025Q9.35 4.7 12.55 4.25Q12.8 4.25 13.025 4.05Q13.25 3.85 13.25 3.6Q13.25 3.3 13 3.075Q12.75 2.85 12.45 2.85Q8.7 3.35 6.05 6.025Q3.4 8.7 2.95 12.45Q2.9 12.75 3.1 12.95Q3.3 13.15 3.6 13.15ZM11.1 38.2Q7 34.2 7.025 29.175Q7.05 24.15 11.1 20L18.45 12.7Q19.2 11.95 20.175 11.95Q21.15 11.95 21.95 12.7Q22.45 13.25 22.65 14.175Q22.85 15.1 22.45 16L29.8 8.7Q30.55 7.9 31.525 7.925Q32.5 7.95 33.25 8.7Q33.85 9.3 34 10.075Q34.15 10.85 33.9 11.65L36.05 9.5Q36.7 8.65 37.85 8.7Q39 8.75 39.8 9.5Q40.85 10.6 40.45 11.875Q40.05 13.15 38.4 14.6Q39.05 14.25 39.85 14.4Q40.65 14.55 41.3 15.3Q42.05 16.1 42.05 17.075Q42.05 18.05 41.3 18.75L37.25 22.85Q38.1 22.4 39.025 22.4Q39.95 22.4 40.75 23.2Q41.5 24 41.5 25Q41.5 26 40.75 26.75L29.3 38.2Q25.15 42.25 20.125 42.275Q15.1 42.3 11.1 38.2ZM17 19.45 21.15 15.35Q21.5 14.95 21.5 14.4Q21.5 13.85 21.15 13.5Q20.75 13.05 20.175 13.05Q19.6 13.05 19.2 13.5L11.9 20.8Q10 22.7 9.05 24.825Q8.1 26.95 8.1 29.125Q8.1 31.3 9.05 33.45Q10 35.6 11.9 37.4Q13.7 39.3 15.85 40.25Q18 41.2 20.175 41.2Q22.35 41.2 24.475 40.25Q26.6 39.3 28.5 37.4L39.95 25.95Q40.4 25.55 40.4 25Q40.4 24.45 39.95 24Q39.6 23.6 39.025 23.6Q38.45 23.6 38.05 24L31.85 30.2Q31.5 30.6 31 30.575Q30.5 30.55 30.15 30.2Q29.75 29.9 29.75 29.35Q29.75 28.8 30.15 28.45L40.5 18Q40.95 17.65 40.95 17.075Q40.95 16.5 40.5 16.1Q40.15 15.7 39.575 15.7Q39 15.7 38.6 16.1L29.6 25.1Q29.25 25.5 28.7 25.5Q28.15 25.5 27.85 25.1Q27.45 24.8 27.475 24.275Q27.5 23.75 27.9 23.35L39 12.25Q39.4 11.85 39.375 11.3Q39.35 10.75 39 10.3Q38.6 9.9 38.025 9.9Q37.45 9.9 37.05 10.3L25.95 21.5Q25.6 21.75 25.075 21.775Q24.55 21.8 24.2 21.45Q23.8 21.15 23.8 20.6Q23.8 20.05 24.15 19.65L32.5 11.4Q32.9 11 32.9 10.425Q32.9 9.85 32.5 9.5Q32.1 9.05 31.525 9.05Q30.95 9.05 30.6 9.5L18.7 21.25Q19.7 23.6 19.7 25.975Q19.7 28.35 18.4 30.85Q18.15 31.35 17.675 31.425Q17.2 31.5 16.8 31.05Q16.6 30.9 16.525 30.55Q16.45 30.2 16.6 29.85Q17.55 27.9 17.65 25.825Q17.75 23.75 16.7 21.7Q16.45 21.2 16.525 20.55Q16.6 19.9 17 19.45Z"/></svg>
